assets/icons/solid/outdent.svg

<svg xmlns="http://www.w3.org/2000/svg" viewBox="0 0 512 512"><!--! Font Awesome Pro 6.2.0 by @fontawesome - https://fontawesome.com License - https://fontawesome.com/license (Commercial License) Copyright 2022 Fonticons, Inc. --><path d="M32 64c0-17.7 14.3-32 32-32H448c17.7 0 32 14.3 32 32s-14.3 32-32 32H64C46.3 96 32 81.7 32 64zM224 192c0-17.7 14.3-32 32-32H448c17.7 0 32 14.3 32 32s-14.3 32-32 32H256c-17.7 0-32-14.3-32-32zm32 96H448c17.7 0 32 14.3 32 32s-14.3 32-32 32H256c-17.7 0-32-14.3-32-32s14.3-32 32-32zM32 448c0-17.7 14.3-32 32-32H448c17.7 0 32 14.3 32 32s-14.3 32-32 32H64c-17.7 0-32-14.3-32-32zm.2-179.4c-8.2-6.4-8.2-18.9 0-25.3l101.9-79.3c10.5-8.2 25.8-.7 25.8 12.6V335.3c0 13.3-15.3 20.8-25.8 12.6L32.2 268.6z"/></svg>

<svg xmlns="http://www.w3.org/2000/svg" viewBox="0 0 512 512"><!--! Font Awesome Free 6.1.2 by @fontawesome - https://fontawesome.com License - https://fontawesome.com/license/free (Icons: CC BY 4.0, Fonts: SIL OFL 1.1, Code: MIT License) Copyright 2022 Fonticons, Inc. --><path d="M32 64C32 46.33 46.33 32 64 32H448C465.7 32 480 46.33 480 64C480 81.67 465.7 96 448 96H64C46.33 96 32 81.67 32 64V64zM224 192C224 174.3 238.3 160 256 160H448C465.7 160 480 174.3 480 192C480 209.7 465.7 224 448 224H256C238.3 224 224 209.7 224 192zM448 288C465.7 288 480 302.3 480 320C480 337.7 465.7 352 448 352H256C238.3 352 224 337.7 224 320C224 302.3 238.3 288 256 288H448zM32 448C32 430.3 46.33 416 64 416H448C465.7 416 480 430.3 480 448C480 465.7 465.7 480 448 480H64C46.33 480 32 465.7 32 448V448zM32.24 268.6C24 262.2 24 249.8 32.24 243.4L134.2 164.1C144.7 155.9 160 163.4 160 176.7V335.3C160 348.6 144.7 356.1 134.2 347.9L32.24 268.6z"/></svg>
